X:41
T:Lannigan's Ball
R:Jig
O:Ireland
M:6/8
K:Em
EFE G2A|B2A Bcd|D2D F2G|AdB AFD|\
E2E G2A|B2A|Bcd|e2B c2A|BGE E3::
e2f g2e|fag fed|e2f g2e|fdB BAB|\
e2f g2e|fag fed|e2B c2A|BGE E3:|
